;FLAVOR:Marlin
;TIME:2220
;Filament used: 1.84371m
;Layer height: 0.2
;MINX:20.784
;MINY:68.187
;MINZ:0.2
;MAXX:82.18
;MAXY:141.95
;MAXZ:3
;Generated with Cura_SteamEngine main
M140 S60
M105
M190 S60
M104 S200
M105
M109 S200
M82 ;absolute extrusion mode
G21 ;metric values
G90 ;absolute positioning
M82 ;set extruder to absolute mode
M107 ;start with the fan off
G28 X0 Y0 ;move X/Y to min endstops
G28 Z0 ;move Z to min endstops
G1 Z15.0 F100 ;move the platform down 15mm
G92 E0 ;zero the extruded length
G1 F200 E3 ;extrude 3mm of feed stock
G92 E0 ;zero the extruded length again
G1 F100
G0 Y20 F100
M117 Printing...
G5
G92 E0
G92 E0
G1 F2400 E-6
;LAYER_COUNT:15
;LAYER:0
M107
M204 S3000
M205 X10 Y10
G1 F600 Z0.275
G0 F3000 X34.061 Y69.93 Z0.275
G1 F600 Z0.2
G0 F3000 X30.7 Y75.086
M204 S1800
M205 X8 Y8
;TYPE:SKIRT
G1 F2400 E0
G1 X30.82 Y74.419 E0.03156
G1 X30.986 Y73.723 E0.06487
G1 X31.228 Y73.05 E0.09818
G1 X31.544 Y72.408 E0.1315
G1 X31.93 Y71.806 E0.1648
G1 X32.38 Y71.25 E0.1981
G1 X32.89 Y70.748 E0.23142
G1 X33.452 Y70.306 E0.26472
G1 X34.061 Y69.93 E0.29804
G1 X34.707 Y69.624 E0.33133
G1 X35.383 Y69.392 E0.36461
G1 X36.082 Y69.237 E0.39795
G1 X37.118 Y69.152 E0.44635
G1 X51.88 Y69.15 E1.13373
G1 X54.542 Y69.112 E1.2577
G1 X57.182 Y69 E1.38074
G1 X59.827 Y68.813 E1.50421
G1 X62.465 Y68.551 E1.62765
G1 X63.544 Y68.408 E1.67833
G1 X65.009 Y68.234 E1.74702
G1 X65.723 Y68.187 E1.78034
G1 X66.437 Y68.22 E1.81363
G1 X67.144 Y68.333 E1.84696
G1 X67.833 Y68.523 E1.88025
G1 X68.497 Y68.789 E1.91355
G1 X69.127 Y69.128 E1.94687
G1 X69.715 Y69.535 E1.98016
G1 X70.254 Y70.005 E2.01346
G1 X70.738 Y70.532 E2.04678
G1 X71.159 Y71.11 E2.08008
G1 X71.514 Y71.731 E2.11339
G1 X71.796 Y72.388 E2.14668
G1 X72.066 Y73.352 E2.19329
G1 X72.16 Y73.846 E2.21671
G1 X82.007 Y133.293 E5.02253
G1 X82.111 Y133.973 E5.05456
G1 X82.18 Y134.685 E5.08787
G1 X82.168 Y135.401 E5.12121
G1 X82.077 Y136.11 E5.1545
G1 X81.908 Y136.805 E5.1878
G1 X81.661 Y137.476 E5.2211
G1 X81.342 Y138.116 E5.2544
G1 X80.953 Y138.716 E5.28769
G1 X80.499 Y139.27 E5.32104
G1 X79.987 Y139.769 E5.35434
G1 X79.422 Y140.207 E5.38762
G1 X78.811 Y140.58 E5.42096
G1 X78.163 Y140.883 E5.45427
G1 X77.485 Y141.111 E5.48757
G1 X76.648 Y141.292 E5.52745
G1 X75.084 Y141.418 E5.60051
G1 X72.416 Y141.671 E5.7253
G1 X71.426 Y141.793 E5.77175
G1 X70.547 Y141.89 E5.81293
G1 X69.968 Y141.928 E5.83995
G1 X68.878 Y141.949 E5.89071
G1 X60.354 Y141.949 E6.28762
G1 X59.43 Y141.936 E6.33065
G1 X56.356 Y141.675 E6.47431
G1 X53.739 Y141.529 E6.59635
G1 X49.739 Y141.445 E6.78265
G1 X47.14 Y141.482 E6.90369
G1 X44.517 Y141.593 E7.02593
G1 X41.584 Y141.804 E7.16286
G1 X40.088 Y141.933 E7.23278
G1 X39.417 Y141.95 E7.26403
G1 X30.354 Y141.949 E7.68604
G1 X29.656 Y141.939 E7.71855
G1 X29.007 Y141.897 E7.74883
G1 X28.326 Y141.816 E7.78076
G1 X26.874 Y141.616 E7.84901
G1 X26.213 Y141.515 E7.88015
G1 X25.513 Y141.367 E7.91347
G1 X24.834 Y141.143 E7.94676
G1 X24.184 Y140.844 E7.98007
G1 X23.572 Y140.474 E8.01337
G1 X23.005 Y140.039 E8.04665
G1 X22.49 Y139.542 E8.07998
G1 X22.033 Y138.992 E8.11328
G1 X21.641 Y138.394 E8.14657
G1 X21.318 Y137.756 E8.17987
G1 X21.068 Y137.085 E8.21321
G1 X20.894 Y136.391 E8.24653
G1 X20.799 Y135.683 E8.27979
G1 X20.784 Y134.967 E8.31314
G1 X20.843 Y134.29 E8.34478
G1 X20.924 Y133.734 E8.37094
G1 X30.7 Y75.086 E11.13952
M204 S3000
M205 X10 Y10
G0 F3000 X31.251 Y75.185
M204 S1800
M205 X8 Y8
G1 F2400 X31.371 Y74.518 E11.17108
G1 X31.531 Y73.854 E11.20288
G1 X31.768 Y73.213 E11.2347
G1 X32.078 Y72.604 E11.26652
G1 X32.457 Y72.035 E11.29836
G1 X32.899 Y71.515 E11.33014
G1 X33.4 Y71.05 E11.36196
G1 X33.951 Y70.646 E11.39378
G1 X34.546 Y70.31 E11.4256
G1 X35.175 Y70.045 E11.45738
G1 X35.832 Y69.856 E11.48921
G1 X36.506 Y69.744 E11.52103
G1 X37.118 Y69.712 E11.54956
G1 X51.888 Y69.71 E12.23732
G1 X54.539 Y69.673 E12.36077
G1 X57.246 Y69.558 E12.48693
G1 X59.849 Y69.373 E12.60845
G1 X62.536 Y69.107 E12.73417
G1 X63.618 Y68.963 E12.785
G1 X63.73 Y68.955 E12.79023
G1 X65.077 Y68.79 E12.85342
G1 X65.759 Y68.747 E12.88524
G1 X66.441 Y68.784 E12.91704
G1 X67.114 Y68.9 E12.94884
G1 X67.769 Y69.094 E12.98065
G1 X68.397 Y69.363 E13.01246
G1 X68.99 Y69.704 E13.04432
G1 X69.538 Y70.112 E13.07613
G1 X70.035 Y70.58 E13.10792
G1 X70.474 Y71.104 E13.13975
G1 X70.848 Y71.675 E13.17153
G1 X71.154 Y72.287 E13.20339
G1 X71.386 Y72.929 E13.23518
G1 X71.553 Y73.609 E13.26778
G1 X81.454 Y133.378 E16.08881
G1 X81.558 Y134.058 E16.12084
G1 X81.621 Y134.738 E16.15264
G1 X81.605 Y135.421 E16.18445
G1 X81.509 Y136.098 E16.21629
G1 X81.335 Y136.758 E16.24807
G1 X81.085 Y137.394 E16.27989
G1 X80.762 Y137.996 E16.3117
G1 X80.371 Y138.557 E16.34355
G1 X79.917 Y139.068 E16.37537
G1 X79.407 Y139.522 E16.40717
G1 X78.847 Y139.914 E16.439
G1 X78.246 Y140.237 E16.47077
G1 X77.61 Y140.488 E16.50261
G1 X76.95 Y140.664 E16.53441
G1 X76.254 Y140.762 E16.56714
G1 X75.056 Y140.859 E16.62311
G1 X72.364 Y141.114 E16.74902
G1 X71.365 Y141.237 E16.79589
G1 X70.486 Y141.334 E16.83707
G1 X69.957 Y141.368 E16.86175
G1 X68.867 Y141.389 E16.91251
G1 X60.362 Y141.389 E17.30854
G1 X59.457 Y141.376 E17.35069
G1 X56.397 Y141.117 E17.49368
G1 X53.755 Y140.969 E17.6169
G1 X49.742 Y140.885 E17.8038
G1 X47.143 Y140.921 E17.92483
G1 X44.451 Y141.036 E18.0503
G1 X41.569 Y141.243 E18.18484
G1 X40.062 Y141.373 E18.25528
G1 X39.417 Y141.39 E18.28532
G1 X30.362 Y141.389 E18.70696
G1 X29.664 Y141.379 E18.73946
G1 X29.072 Y141.341 E18.76709
G1 X28.523 Y141.277 E18.79282
G1 X26.959 Y141.062 E18.86633
G1 X26.298 Y140.961 E18.89747
G1 X25.63 Y140.818 E18.92928
G1 X24.983 Y140.599 E18.96109
G1 X24.366 Y140.305 E18.99291
G1 X23.787 Y139.942 E19.02473
G1 X23.255 Y139.513 E19.05656
G1 X22.777 Y139.025 E19.08836
G1 X22.359 Y138.484 E19.1202
G1 X22.007 Y137.899 E19.15199
G1 X21.726 Y137.276 E19.18381
G1 X21.52 Y136.625 E19.21561
G1 X21.39 Y135.954 E19.24743
G1 X21.341 Y135.273 E19.27923
G1 X21.398 Y134.368 E19.32145
G1 X21.476 Y133.826 E19.34695
G1 X31.251 Y75.185 E22.11519
M204 S3000
M205 X10 Y10
G0 F3000 X31.802 Y75.284
M204 S1800
M205 X8 Y8
G1 F2400 X31.922 Y74.617 E22.14675
G1 X32.077 Y73.986 E22.17701
G1 X32.307 Y73.379 E22.20723
G1 X32.61 Y72.804 E22.2375
G1 X32.982 Y72.271 E22.26776
G1 X33.416 Y71.788 E22.298
G1 X33.906 Y71.362 E22.32823
G1 X34.445 Y70.999 E22.35849
G1 X35.025 Y70.705 E22.38877
G1 X35.636 Y70.485 E22.41901
G1 X36.269 Y70.341 E22.44924
G1 X37.118 Y70.272 E22.4889
G1 X51.896 Y70.27 E23.17703
G1 X54.571 Y70.232 E23.3016
G1 X57.237 Y70.119 E23.42585
G1 X59.944 Y69.927 E23.55222
G1 X62.577 Y69.666 E23.67542
G1 X63.692 Y69.518 E23.72779
G1 X63.804 Y69.51 E23.73302
G1 X65.145 Y69.346 E23.79593
G1 X65.793 Y69.307 E23.82616
G1 X66.442 Y69.348 E23.85644
G1 X67.08 Y69.468 E23.88667
G1 X67.699 Y69.666 E23.91693
G1 X68.289 Y69.938 E23.94718
G1 X68.841 Y70.28 E23.97742
G1 X69.346 Y70.688 E24.00765
G1 X69.798 Y71.155 E24.03791
G1 X70.189 Y71.674 E24.06817
G1 X70.514 Y72.236 E24.0984
G1 X70.767 Y72.835 E24.12868
G1 X70.997 Y73.677 E24.16932
G1 X80.9 Y133.463 E26.99114
G1 X81.004 Y134.143 E27.02317
G1 X81.063 Y134.79 E27.05342
G1 X81.041 Y135.439 E27.08366
G1 X80.941 Y136.081 E27.11392
G1 X80.762 Y136.705 E27.14414
G1 X80.507 Y137.303 E27.17441
G1 X80.181 Y137.865 E27.20467
G1 X79.789 Y138.383 E27.23492
G1 X79.336 Y138.848 E27.26514
G1 X78.829 Y139.255 E27.29542
G1 X78.277 Y139.596 E27.32563
G1 X77.686 Y139.867 E27.35591
G1 X77.067 Y140.063 E27.38614
G1 X76.209 Y140.204 E27.42663
G1 X74.956 Y140.305 E27.48516
G1 X72.312 Y140.556 E27.60883
G1 X71.303 Y140.68 E27.65617
G1 X70.182 Y140.804 E27.70868
G1 X68.755 Y140.83 E27.77514
G1 X60.37 Y140.829 E28.16558
G1 X59.484 Y140.816 E28.20684
G1 X56.441 Y140.559 E28.34904
G1 X53.769 Y140.409 E28.47366
G1 X49.746 Y140.325 E28.66103
G1 X47.111 Y140.362 E28.78374
G1 X44.422 Y140.476 E28.90906
G1 X41.544 Y140.683 E29.04342
G1 X40.19 Y140.8 E29.1067
G1 X39.417 Y140.83 E29.14272
G1 X30.37 Y140.829 E29.56399
G1 X29.672 Y140.819 E29.59649
G1 X29.137 Y140.784 E29.62146
G1 X28.479 Y140.707 E29.65231
G1 X27.121 Y140.52 E29.71614
G1 X26.382 Y140.407 E29.75095
G1 X25.748 Y140.27 E29.78115
G1 X25.134 Y140.056 E29.81143
G1 X24.552 Y139.768 E29.84166
G1 X24.01 Y139.41 E29.87191
G1 X23.515 Y138.989 E29.90217
G1 X23.076 Y138.51 E29.93242
G1 X22.699 Y137.981 E29.96267
G1 X22.39 Y137.41 E29.9929
G1 X22.154 Y136.805 E30.02314
G1 X21.993 Y136.175 E30.05342
G1 X21.911 Y135.531 E30.08365
G1 X21.909 Y134.881 E30.11392
G1 X22.009 Y134.045 E30.15312
G1 X31.802 Y75.284 E32.92702
M204 S3000
M205 X10 Y10
G1 F2400 E26.92702
;MESH:tweezers.3mf
G0 F3000 X36.354 Y76.045
G0 X37.423 Y76.222
G0 X50.931 Y84.846
M204 S1800
M205 X8 Y8
;TYPE:WALL-INNER
G1 F2400 E32.92702
G1 F1500 X51.092 Y85.175 E32.94407
G1 X60.887 Y134.15 E35.26972
G1 X68.086 Y134.15 E35.60493
G1 X58.552 Y76.95 E38.30515
G1 X46.454 Y76.95 E38.86848
G1 X38.298 Y76.951 E39.24826
G1 X28.789 Y134.006 E41.94162
G1 X29.835 Y134.15 E41.99079
G1 X38.591 Y134.149 E42.39851
G1 X48.357 Y85.322 E44.71713
G1 X48.448 Y85.032 E44.73128
G1 X48.624 Y84.737 E44.74728
G1 X48.904 Y84.466 E44.76542
G1 X49.083 Y84.354 E44.77525
G1 X49.503 Y84.215 E44.79585
G1 X49.969 Y84.214 E44.81755
G1 X50.378 Y84.346 E44.83756
G1 X50.707 Y84.576 E44.85626
G1 X50.931 Y84.846 E44.87259
M204 S3000
M205 X10 Y10
G0 F3000 X50.324 Y84.984
M204 S1800
M205 X8 Y8
G1 F1500 X50.557 Y85.359 E44.89315
G1 X60.428 Y134.71 E47.23665
G1 X68.747 Y134.71 E47.62402
G1 X59.027 Y76.39 E50.3771
G1 X46.454 Y76.39 E50.96256
G1 X37.823 Y76.391 E51.36445
G1 X28.141 Y134.483 E54.10677
G1 X29.797 Y134.71 E54.1846
G1 X39.05 Y134.709 E54.61546
G1 X48.923 Y85.347 E56.95949
G1 X49.142 Y84.996 E56.97875
G1 X49.342 Y84.851 E56.99025
G1 X49.593 Y84.767 E57.00258
G1 X49.894 Y84.769 E57.01659
G1 X50.126 Y84.846 E57.02798
G1 X50.324 Y84.984 E57.03921
M204 S3000
M205 X10 Y10
G0 F3000 X49.534 Y85.396
M204 S1800
M205 X8 Y8
;TYPE:WALL-OUTER
G1 F1500 X49.684 Y85.32 E57.04704
G1 X49.835 Y85.33 E57.05409
G1 X49.94 Y85.392 E57.05977
G1 X50.014 Y85.508 E57.06618
G1 X59.969 Y135.27 E59.42922
G1 X69.408 Y135.27 E59.86873
G1 X59.501 Y75.83 E62.67469
G1 X46.454 Y75.83 E63.28221
G1 X37.349 Y75.831 E63.70618
G1 X27.494 Y134.959 E66.49741
G1 X29.759 Y135.27 E66.60387
G1 X39.509 Y135.269 E67.05787
G1 X49.465 Y85.503 E69.4211
G1 X49.534 Y85.396 E69.42703
M204 S3000
M205 X10 Y10
G0 F3000 X49.684 Y85.32
G0 X49.716 Y85.322
G0 X49.716 Y84.65
G0 X49.073 Y83.772
M204 S1800
M205 X8 Y8
;TYPE:SKIN
G1 F1500 X49.41 Y83.682 E69.44327
G1 X50.049 Y83.677 E69.47302
G1 X50.612 Y83.856 E69.50053
G1 X50.896 Y84.034 E69.51614
G1 X51.254 Y84.372 E69.53906
G1 X51.484 Y84.73 E69.55888
G1 X51.608 Y85.023 E69.57369
G1 X61.331 Y133.61 E71.88096
G1 X63.838 Y133.61 E71.9977
G1 X67.448 Y133.61 E72.1658
G1 X58.094 Y77.49 E74.81503
G1 X38.756 Y77.492 E75.71549
G1 X29.414 Y133.546 E78.3616
G1 X29.874 Y133.61 E78.38322
G1 X38.147 Y133.609 E78.76845
G1 X47.837 Y85.171 E81.06861
G1 X47.954 Y84.809 E81.08633
G1 X48.177 Y84.432 E81.10673
G1 X48.583 Y84.027 E81.13343
G1 X49.073 Y83.772 E81.15915
M204 S3000
M205 X10 Y10
G0 F3000 X57.178 Y77.769
M204 S1800
M205 X8 Y8
G1 F1500 X57.993 Y78.584 E81.21282
M204 S3000
M205 X10 Y10
G0 F3000 X58.151 Y79.534
M204 S1800
M205 X8 Y8
G1 F1500 X56.386 Y77.769 E81.32905
M204 S3000
M205 X10 Y10
G0 F3000 X55.594 Y77.769
M204 S1800
M205 X8 Y8
G1 F1500 X58.31 Y80.485 E81.5079
M204 S3000
M205 X10 Y10
G0 F3000 X58.468 Y81.435
M204 S1800
M205 X8 Y8
G1 F1500 X54.802 Y77.769 E81.74931
M204 S3000
M205 X10 Y10
G0 F3000 X54.01 Y77.769
M204 S1800
M205 X8 Y8
G1 F1500 X58.626 Y82.385 E82.05328
M204 S3000
M205 X10 Y10
G0 F3000 X58.785 Y83.336
M204 S1800
M205 X8 Y8
G1 F1500 X53.218 Y77.769 E82.41988
M204 S3000
M205 X10 Y10
G0 F3000 X52.427 Y77.769
M204 S1800
M205 X8 Y8
G1 F1500 X58.943 Y84.286 E82.849
M204 S3000
M205 X10 Y10
G0 F3000 X59.102 Y85.236
M204 S1800
M205 X8 Y8
G1 F1500 X51.635 Y77.769 E83.34072
M204 S3000
M205 X10 Y10
G0 F3000 X50.843 Y77.77
M204 S1800
M205 X8 Y8
G1 F1500 X59.26 Y86.187 E83.89499
M204 S3000
M205 X10 Y10
G0 F3000 X59.418 Y87.137
M204 S1800
M205 X8 Y8
G1 F1500 X50.051 Y77.77 E84.51182
M204 S3000
M205 X10 Y10
G0 F3000 X49.259 Y77.77
M204 S1800
M205 X8 Y8
G1 F1500 X59.577 Y88.087 E85.19125
M204 S3000
M205 X10 Y10
G0 F3000 X59.735 Y89.038
M204 S1800
M205 X8 Y8
G1 F1500 X48.467 Y77.77 E85.93327
M204 S3000
M205 X10 Y10
G0 F3000 X47.675 Y77.77
M204 S1800
M205 X8 Y8
G1 F1500 X59.894 Y89.988 E86.73788
M204 S3000
M205 X10 Y10
G0 F3000 X60.052 Y90.938
M204 S1800
M205 X8 Y8
G1 F1500 X46.884 Y77.77 E87.60501
M204 S3000
M205 X10 Y10
G0 F3000 X46.092 Y77.77
M204 S1800
M205 X8 Y8
G1 F1500 X60.21 Y91.889 E88.53474
M204 S3000
M205 X10 Y10
G0 F3000 X60.369 Y92.839
M204 S1800
M205 X8 Y8
G1 F1500 X45.3 Y77.77 E89.52706
M204 S3000
M205 X10 Y10
G0 F3000 X44.508 Y77.771
M204 S1800
M205 X8 Y8
G1 F1500 X50.152 Y83.414 E89.89869
M204 S3000
M205 X10 Y10
G0 F3000 X49.353 Y83.408
M204 S1800
M205 X8 Y8
G1 F1500 X43.716 Y77.771 E90.2699
M204 S3000
M205 X10 Y10
G0 F3000 X42.924 Y77.771
M204 S1800
M205 X8 Y8
G1 F1500 X48.768 Y83.614 E90.6547
M204 S3000
M205 X10 Y10
G0 F3000 X48.289 Y83.927
M204 S1800
M205 X8 Y8
G1 F1500 X42.132 Y77.771 E91.06012
M204 S3000
M205 X10 Y10
G0 F3000 X41.34 Y77.771
M204 S1800
M205 X8 Y8
G1 F1500 X47.907 Y84.338 E91.49257
M204 S3000
M205 X10 Y10
G0 F3000 X47.643 Y84.865
M204 S1800
M205 X8 Y8
G1 F1500 X40.549 Y77.771 E91.95972
M204 S3000
M205 X10 Y10
G0 F3000 X39.757 Y77.771
M204 S1800
M205 X8 Y8
G1 F1500 X47.483 Y85.497 E92.46849
M204 S3000
M205 X10 Y10
G0 F3000 X47.351 Y86.157
M204 S1800
M205 X8 Y8
G1 F1500 X38.989 Y77.795 E93.01914
M204 S3000
M205 X10 Y10
G0 F3000 X38.876 Y78.474
M204 S1800
M205 X8 Y8
G1 F1500 X47.219 Y86.817 E93.56854
M204 S3000
M205 X10 Y10
G0 F3000 X47.087 Y87.477
M204 S1800
M205 X8 Y8
G1 F1500 X38.762 Y79.152 E94.11676
M204 S3000
M205 X10 Y10
G0 F3000 X38.649 Y79.831
M204 S1800
M205 X8 Y8
G1 F1500 X46.955 Y88.137 E94.66372
M204 S3000
M205 X10 Y10
G0 F3000 X46.823 Y88.797
M204 S1800
M205 X8 Y8
G1 F1500 X38.536 Y80.51 E95.20943
M204 S3000
M205 X10 Y10
G0 F3000 X38.423 Y81.189
M204 S1800
M205 X8 Y8
G1 F1500 X46.691 Y89.457 E95.7539
M204 S3000
M205 X10 Y10
G0 F3000 X46.559 Y90.117
M204 S1800
M205 X8 Y8
G1 F1500 X38.31 Y81.868 E96.29711
M204 S3000
M205 X10 Y10
G0 F3000 X38.197 Y82.546
M204 S1800
M205 X8 Y8
G1 F1500 X46.427 Y90.777 E96.8391
M204 S3000
M205 X10 Y10
G0 F3000 X46.295 Y91.437
M204 S1800
M205 X8 Y8
G1 F1500 X38.084 Y83.225 E97.37984
M204 S3000
M205 X10 Y10
G0 F3000 X37.97 Y83.904
M204 S1800
M205 X8 Y8
G1 F1500 X46.163 Y92.097 E97.91936
M204 S3000
M205 X10 Y10
G0 F3000 X46.031 Y92.757
M204 S1800
M205 X8 Y8
G1 F1500 X37.857 Y84.583 E98.45764
M204 S3000
M205 X10 Y10
G0 F3000 X37.744 Y85.262
M204 S1800
M205 X8 Y8
G1 F1500 X45.899 Y93.417 E98.99466
M204 S3000
M205 X10 Y10
G0 F3000 X45.767 Y94.077
M204 S1800
M205 X8 Y8
G1 F1500 X37.631 Y85.941 E99.53043
M204 S3000
M205 X10 Y10
G0 F3000 X37.518 Y86.619
M204 S1800
M205 X8 Y8
G1 F1500 X45.635 Y94.737 E100.06498
M204 S3000
M205 X10 Y10
G0 F3000 X45.503 Y95.397
M204 S1800
M205 X8 Y8
G1 F1500 X37.405 Y87.298 E100.59828
M204 S3000
M205 X10 Y10
G0 F3000 X37.292 Y87.977
M204 S1800
M205 X8 Y8
G1 F1500 X45.371 Y96.056 E101.13029
M204 S3000
M205 X10 Y10
G0 F3000 X45.239 Y96.717
M204 S1800
M205 X8 Y8
G1 F1500 X37.178 Y88.656 E101.66112
M204 S3000
M205 X10 Y10
G0 F3000 X37.065 Y89.335
M204 S1800
M205 X8 Y8
G1 F1500 X45.107 Y97.377 E102.1907
M204 S3000
M205 X10 Y10
G0 F3000 X44.975 Y98.036
M204 S1800
M205 X8 Y8
G1 F1500 X36.952 Y90.013 E102.71903
M204 S3000
M205 X10 Y10
G0 F3000 X36.839 Y90.692
M204 S1800
M205 X8 Y8
G1 F1500 X44.844 Y98.697 E103.24617
M204 S3000
M205 X10 Y10
G0 F3000 X44.711 Y99.356
M204 S1800
M205 X8 Y8
G1 F1500 X36.726 Y91.371 E103.772
M204 S3000
M205 X10 Y10
G0 F3000 X36.613 Y92.05
M204 S1800
M205 X8 Y8
G1 F1500 X44.579 Y100.016 E104.29657
M204 S3000
M205 X10 Y10
G0 F3000 X44.448 Y100.677
M204 S1800
M205 X8 Y8
G1 F1500 X36.5 Y92.729 E104.81996
M204 S3000
M205 X10 Y10
G0 F3000 X36.387 Y93.408
M204 S1800
M205 X8 Y8
G1 F1500 X44.315 Y101.336 E105.34204
M204 S3000
M205 X10 Y10
G0 F3000 X44.183 Y101.996
M204 S1800
M205 X8 Y8
G1 F1500 X36.273 Y94.086 E105.86292
M204 S3000
M205 X10 Y10
