;FLAVOR:Marlin
;TIME:1224
;Filament used: 1.0695m
;Layer height: 0.2
;MINX:72.85
;MINY:67.26
;MINZ:0.2
;MAXX:125.239
;MAXY:99.647
;MAXZ:5
;Generated with Cura_SteamEngine main
M140 S60
M105
M190 S60
M104 S200
M105
M109 S200
M82 ;absolute extrusion mode
G21 ;metric values
G90 ;absolute positioning
M82 ;set extruder to absolute mode
M107 ;start with the fan off
G28 X0 Y0 ;move X/Y to min endstops
G28 Z0 ;move Z to min endstops
G1 Z15.0 F100 ;move the platform down 15mm
G92 E0 ;zero the extruded length
G1 F200 E3 ;extrude 3mm of feed stock
G92 E0 ;zero the extruded length again
G1 F100
G0 Y20 F100
M117 Printing...
G5
G92 E0
G92 E0
G1 F2400 E-6
;LAYER_COUNT:25
;LAYER:0
M107
M204 S3000
M205 X10 Y10
G1 F600 Z0.275
G0 F3000 X79.267 Y69.826 Z0.275
G1 F600 Z0.2
G0 F3000 X76.625 Y75.01
M204 S1800
M205 X8 Y8
;TYPE:SKIRT
G1 F2400 E0
G1 X77.784 Y72.623 E0.12356
G1 X78.009 Y72.125 E0.149
G1 X78.519 Y71.042 E0.20474
G1 X78.859 Y70.413 E0.23804
G1 X79.267 Y69.826 E0.27133
G1 X79.739 Y69.288 E0.30465
G1 X80.267 Y68.806 E0.33794
G1 X80.846 Y68.386 E0.37125
G1 X81.815 Y67.865 E0.42248
G1 X82.61 Y67.567 E0.46201
G1 X83.304 Y67.393 E0.49533
G1 X84.119 Y67.283 E0.53362
G1 X85.082 Y67.267 E0.57847
G1 X117.911 Y67.26 E2.10712
G1 X118.781 Y67.274 E2.14764
G1 X119.495 Y67.326 E2.18098
G1 X120.198 Y67.458 E2.21428
G1 X120.882 Y67.667 E2.24759
G1 X121.538 Y67.951 E2.28087
G1 X122.159 Y68.306 E2.31418
G1 X122.736 Y68.729 E2.34749
G1 X123.262 Y69.213 E2.38078
G1 X123.731 Y69.753 E2.41408
G1 X124.158 Y70.364 E2.44879
G1 X124.52 Y70.981 E2.4821
G1 X124.811 Y71.634 E2.51539
G1 X125.028 Y72.316 E2.54872
G1 X125.167 Y73.017 E2.58199
G1 X125.228 Y73.797 E2.61842
G1 X125.239 Y74.478 E2.65014
G1 X125.239 Y92.334 E3.48159
G1 X125.228 Y93.135 E3.51889
G1 X125.179 Y93.848 E3.55217
G1 X125.05 Y94.552 E3.58549
G1 X124.843 Y95.237 E3.61882
G1 X124.561 Y95.894 E3.65211
G1 X124.207 Y96.516 E3.68543
G1 X123.787 Y97.094 E3.7187
G1 X123.204 Y97.732 E3.75895
G1 X122.56 Y98.291 E3.79865
G1 X121.972 Y98.698 E3.83195
G1 X121.342 Y99.036 E3.86524
G1 X120.678 Y99.303 E3.89857
G1 X119.988 Y99.493 E3.93189
G1 X119.282 Y99.605 E3.96518
G1 X118.76 Y99.637 E3.98953
G1 X118.257 Y99.647 E4.01296
G1 X89.705 Y99.647 E5.34246
G1 X89.024 Y99.637 E5.37417
G1 X88.311 Y99.587 E5.40745
G1 X87.607 Y99.457 E5.44079
G1 X86.923 Y99.25 E5.47407
G1 X86.372 Y99.019 E5.50189
G1 X85.471 Y98.591 E5.54833
G1 X77.061 Y94.387 E5.98614
G1 X76.435 Y94.064 E6.01894
G1 X75.819 Y93.701 E6.05223
G1 X75.247 Y93.271 E6.08556
G1 X74.727 Y92.78 E6.11886
G1 X74.264 Y92.235 E6.15216
G1 X73.884 Y91.677 E6.18359
G1 X73.53 Y91.055 E6.21692
G1 X73.249 Y90.398 E6.25019
G1 X73.042 Y89.713 E6.28351
G1 X72.913 Y89.01 E6.31679
G1 X72.864 Y88.309 E6.34951
G1 X72.853 Y87.568 E6.38402
G1 X72.85 Y84.266 E6.53778
G1 X72.861 Y83.469 E6.57489
G1 X72.911 Y82.756 E6.60817
G1 X73.04 Y82.053 E6.64145
G1 X73.247 Y81.368 E6.67478
G1 X73.57 Y80.617 E6.71284
G1 X74.083 Y79.725 E6.76076
G1 X75.42 Y77.324 E6.88872
G1 X76.625 Y75.01 E7.01021
M204 S3000
M205 X10 Y10
G1 F2400 E1.01021
G0 F3000 X73.97 Y84.265
M204 S1800
M205 X8 Y8
G1 F2400 E7.01021
G1 X73.981 Y83.485 E7.04653
G1 X74.03 Y82.838 E7.07674
G1 X74.158 Y82.201 E7.107
G1 X74.364 Y81.585 E7.13724
G1 X74.68 Y80.933 E7.17098
G1 X75.088 Y80.222 E7.20915
G1 X76.398 Y77.871 E7.33447
G1 X77.639 Y75.488 E7.45958
G1 X78.803 Y73.088 E7.58378
G1 X79.064 Y72.513 E7.61319
G1 X79.532 Y71.519 E7.66434
G1 X79.844 Y70.949 E7.6946
G1 X80.224 Y70.422 E7.72486
G1 X80.666 Y69.946 E7.7551
G1 X81.163 Y69.528 E7.78534
G1 X81.707 Y69.173 E7.81559
G1 X82.296 Y68.878 E7.84626
G1 X83.001 Y68.619 E7.88124
G1 X83.633 Y68.471 E7.91146
G1 X84.423 Y68.398 E7.9484
G1 X85.082 Y68.387 E7.97909
G1 X117.911 Y68.38 E9.50775
G1 X118.762 Y68.394 E9.54738
G1 X119.41 Y68.445 E9.57765
G1 X120.046 Y68.575 E9.60787
G1 X120.662 Y68.782 E9.63813
G1 X121.247 Y69.064 E9.66837
G1 X121.794 Y69.415 E9.69864
G1 X122.293 Y69.831 E9.72889
G1 X122.738 Y70.304 E9.75913
G1 X123.16 Y70.871 E9.79204
G1 X123.551 Y71.546 E9.82836
G1 X123.805 Y72.144 E9.85862
G1 X123.984 Y72.769 E9.88889
G1 X124.103 Y73.525 E9.92452
G1 X124.119 Y74.478 E9.96891
G1 X124.12 Y92.319 E10.79966
G1 X124.109 Y93.12 E10.83696
G1 X124.06 Y93.767 E10.86717
G1 X123.932 Y94.404 E10.89743
G1 X123.726 Y95.02 E10.92767
G1 X123.447 Y95.607 E10.95794
G1 X123.098 Y96.155 E10.98819
G1 X122.438 Y96.916 E11.03509
G1 X121.826 Y97.443 E11.0727
G1 X121.285 Y97.804 E11.10299
G1 X120.704 Y98.095 E11.13324
G1 X120.092 Y98.312 E11.16348
G1 X119.458 Y98.453 E11.19372
G1 X118.738 Y98.517 E11.22738
G1 X118.13 Y98.528 E11.2557
G1 X89.721 Y98.527 E12.57854
G1 X89.04 Y98.517 E12.61025
G1 X88.393 Y98.468 E12.64046
G1 X87.756 Y98.339 E12.67073
G1 X86.852 Y98.007 E12.71557
G1 X85.951 Y97.579 E12.76202
G1 X77.575 Y93.391 E13.19808
G1 X76.949 Y93.068 E13.23088
G1 X76.391 Y92.735 E13.26113
G1 X75.878 Y92.337 E13.29137
G1 X75.418 Y91.878 E13.32163
G1 X74.879 Y91.167 E13.36317
G1 X74.507 Y90.504 E13.39857
G1 X74.262 Y89.903 E13.42879
G1 X74.092 Y89.276 E13.45904
G1 X73.988 Y88.549 E13.49324
G1 X73.973 Y87.567 E13.53897
G1 X73.97 Y84.265 E13.69273
M204 S3000
M205 X10 Y10
G0 F3000 X73.41 Y84.265
M204 S1800
M205 X8 Y8
G1 F2400 X73.421 Y83.477 E13.72942
G1 X73.47 Y82.796 E13.76121
G1 X73.599 Y82.125 E13.79303
G1 X73.806 Y81.474 E13.82484
G1 X74.195 Y80.654 E13.8671
G1 X74.603 Y79.943 E13.90527
G1 X75.899 Y77.617 E14.02926
G1 X77.132 Y75.249 E14.15357
G1 X78.304 Y72.833 E14.27861
G1 X78.557 Y72.274 E14.30718
G1 X79.025 Y71.28 E14.35834
G1 X79.352 Y70.68 E14.39016
G1 X79.747 Y70.122 E14.42199
G1 X80.204 Y69.615 E14.45378
G1 X80.717 Y69.164 E14.48558
G1 X81.279 Y68.775 E14.51741
G1 X82.054 Y68.373 E14.55806
G1 X82.806 Y68.093 E14.59543
G1 X83.47 Y67.931 E14.62725
G1 X84.413 Y67.838 E14.67137
G1 X85.082 Y67.827 E14.70253
G1 X117.911 Y67.82 E16.23119
G1 X118.772 Y67.834 E16.27128
G1 X119.453 Y67.885 E16.30308
G1 X120.124 Y68.016 E16.33492
G1 X120.774 Y68.225 E16.36671
G1 X121.396 Y68.507 E16.39851
G1 X121.981 Y68.861 E16.43035
G1 X122.52 Y69.28 E16.46214
G1 X123.007 Y69.76 E16.49398
G1 X123.611 Y70.537 E16.5398
G1 X124.036 Y71.264 E16.57902
G1 X124.309 Y71.891 E16.61086
G1 X124.507 Y72.544 E16.64263
G1 X124.628 Y73.217 E16.67447
G1 X124.668 Y73.806 E16.70196
G1 X124.679 Y74.478 E16.73326
G1 X124.679 Y92.326 E17.56434
G1 X124.668 Y93.127 E17.60164
G1 X124.619 Y93.809 E17.63348
G1 X124.491 Y94.48 E17.66528
G1 X124.284 Y95.131 E17.69709
G1 X124.004 Y95.754 E17.7289
G1 X123.652 Y96.34 E17.76073
G1 X123.235 Y96.881 E17.79254
G1 X122.709 Y97.421 E17.82764
G1 X122.192 Y97.868 E17.85946
G1 X121.627 Y98.252 E17.89127
G1 X121.021 Y98.567 E17.92307
G1 X120.383 Y98.81 E17.95486
G1 X119.72 Y98.976 E17.98669
G1 X118.749 Y99.077 E18.03215
G1 X118.246 Y99.087 E18.05557
G1 X89.713 Y99.087 E19.38419
G1 X89.032 Y99.077 E19.4159
G1 X88.351 Y99.027 E19.4477
G1 X87.68 Y98.898 E19.47951
G1 X86.901 Y98.65 E19.51758
G1 X85.711 Y98.085 E19.57892
G1 X77.318 Y93.889 E20.01585
G1 X76.692 Y93.566 E20.04865
G1 X76.104 Y93.218 E20.08047
G1 X75.561 Y92.803 E20.11229
G1 X75.07 Y92.328 E20.1441
G1 X74.412 Y91.476 E20.19423
G1 X74.018 Y90.779 E20.23151
G1 X73.754 Y90.149 E20.26332
G1 X73.566 Y89.492 E20.29514
G1 X73.455 Y88.818 E20.32695
G1 X73.424 Y88.3 E20.35111
G1 X73.413 Y87.567 E20.38525
G1 X73.41 Y84.265 E20.539
M204 S3000
M205 X10 Y10
G1 F2400 E14.539
;MESH:tweezers ma-.3mf
G0 F3000 X83.825 Y78.302
G0 X84.871 Y78.04
G0 X86.33 Y75.65
M204 S1800
M205 X8 Y8
;TYPE:WALL-INNER
G1 F2400 E20.539
G1 F1242.6 X86.816 Y75.193 E20.5765
G1 F1350.5 X87.305 Y75.071 E20.60257
G1 X86.798 Y75.124 E20.62893
G1 F1242.6 X85.71 Y75.126 E20.69009
G1 X85.709 Y76.996 E20.7952
G1 X85.842 Y76.996 E20.80267
G1 X86.158 Y76.011 E20.86082
G1 X86.33 Y75.65 E20.8833
M204 S3000
M205 X10 Y10
G0 F3000 X88.866 Y75.317
M204 S1800
M205 X8 Y8
G1 F1500 X89.358 Y75.918 E20.91946
G1 X89.642 Y77.055 E20.97403
G1 X90.147 Y77.055 E20.99755
G1 X90.147 Y76.647 E21.01655
G1 X90.234 Y76.16 E21.03958
G1 X90.341 Y75.933 E21.05127
G1 X90.687 Y75.541 E21.07561
G1 F1324.9 X91.209 Y75.212 E21.10814
G1 F1144.4 X91.305 Y75.165 E21.11467
G1 X91.201 Y75.138 E21.12122
G1 F1324.9 X90.524 Y75.065 E21.15712
G1 F1505.4 X89.905 Y75.064 E21.18584
G1 F1513.5 X89.286 Y75.063 E21.21441
G1 F1521.7 X88.667 Y75.062 E21.24282
G1 F1530.1 X88.048 Y75.061 E21.27108
G1 F1516.2 X88.866 Y75.317 E21.31056
M204 S3000
M205 X10 Y10
G0 F3000 X94.727 Y75.302
M204 S1800
M205 X8 Y8
G1 F1486.7 X95.282 Y75.07 E21.33882
G1 F1478.9 X94.619 Y75.069 E21.37013
G1 F1484.1 X93.956 Y75.068 E21.40134
G1 F1492 X93.293 Y75.066 E21.43237
G1 F1497.3 X92.63 Y75.065 E21.4633
G1 F1250 X91.923 Y75.174 E21.50327
G1 X92.452 Y75.559 E21.53983
G1 F1500 X92.795 Y75.974 E21.5649
G1 X93.381 Y77.055 E21.62216
G1 X93.672 Y77.055 E21.63571
G1 X94.265 Y75.84 E21.69866
G1 X94.727 Y75.302 E21.73168
M204 S3000
M205 X10 Y10
G0 F3000 X99.875 Y75.627
G0 X99.875 Y84.489
G0 X91.909 Y86.126
M204 S1800
M205 X8 Y8
G1 F1224.5 X91.47 Y85.81 E21.76254
G1 F1500 X91.131 Y85.504 E21.7838
G1 X90.933 Y85.163 E21.80216
G1 X89.822 Y81.855 E21.96465
G1 X89.491 Y81.855 E21.98006
G1 X89.492 Y83.397 E22.05187
G1 X89.326 Y84.063 E22.08383
G1 X88.958 Y84.497 E22.11032
G1 X88.603 Y84.701 E22.12939
G1 X88.218 Y84.792 E22.14781
G1 X87.695 Y84.749 E22.17224
G1 X87.47 Y84.664 E22.18344
G1 X87.186 Y84.485 E22.19908
G1 X86.892 Y84.153 E22.21972
G1 X86.75 Y83.861 E22.23484
G1 X86.051 Y81.855 E22.33376
G1 X85.441 Y81.855 E22.36216
G1 X85.442 Y83.455 E22.43667
G1 X85.376 Y83.88 E22.45669
G1 X85.242 Y84.176 E22.47182
G1 X84.957 Y84.515 E22.49245
G1 X84.691 Y84.696 E22.50743
G1 X84.234 Y84.855 E22.52996
G1 X80.651 Y84.855 E22.6968
G1 X80.653 Y87.461 E22.81814
G1 X88.06 Y91.169 E23.20385
G1 X87.795 Y90.855 E23.22298
G1 X87.647 Y90.227 E23.25302
G1 X87.647 Y88.271 E23.3441
G1 X87.738 Y87.957 E23.35933
G1 X87.897 Y87.655 E23.37522
G1 X88.195 Y87.343 E23.39531
G1 X88.441 Y87.192 E23.40875
G1 X88.946 Y87.055 E23.43311
G1 X91.103 Y87.055 E23.53355
G1 F1224.5 X91.824 Y86.929 E23.5753
G1 F1039.6 X92.564 Y86.932 E23.62502
G1 F1231.7 X93.305 Y87.055 E23.66762
G1 F1500 X94.158 Y87.055 E23.70734
G1 X94.488 Y87.126 E23.72305
G1 X94.748 Y87.242 E23.73631
G1 X95.066 Y87.494 E23.7552
G1 X95.302 Y87.833 E23.77444
G1 X95.417 Y88.164 E23.79075
G1 X95.447 Y88.455 E23.80438
G1 X95.447 Y90.227 E23.88689
G1 X95.392 Y90.62 E23.90537
G1 X95.167 Y91.068 E23.92871
G1 X94.706 Y91.464 E23.95701
G1 F1231.7 X94.309 Y91.727 E23.98401
G1 X94.802 Y91.848 E24.0128
G1 F1500 X117.44 Y91.848 E25.06692
G1 X117.44 Y75.06 E25.84864
G1 F1502.7 X116.64 Y75.06 E25.88583
G1 X115.84 Y75.06 E25.92301
G1 F1505.4 X115.04 Y75.06 E25.96013
G1 X114.24 Y75.06 E25.99725
G1 X113.44 Y75.06 E26.03437
G1 F1508.1 X112.64 Y75.06 E26.07142
G1 X111.84 Y75.06 E26.10847
G1 F1510.8 X111.04 Y75.06 E26.14545
G1 X110.24 Y75.06 E26.18244
G1 F1513.5 X109.44 Y75.06 E26.21936
G1 X108.64 Y75.06 E26.25628
G1 X107.84 Y75.06 E26.2932
G1 F1516.2 X107.04 Y75.06 E26.33005
G1 X106.24 Y75.06 E26.3669
G1 F1519 X105.44 Y75.06 E26.40369
G1 X104.64 Y75.06 E26.44047
G1 F1521.7 X103.84 Y75.06 E26.47719
G1 X103.04 Y75.06 E26.51391
G1 F1524.5 X102.24 Y75.06 E26.55056
G1 X101.44 Y75.06 E26.58722
G1 X100.64 Y75.06 E26.62387
G1 F1527.3 X99.84 Y75.06 E26.66045
G1 X99.04 Y75.06 E26.69704
G1 F1513.5 X99.887 Y75.334 E26.73812
G1 F1500 X100.341 Y75.916 E26.77249
G1 X100.447 Y76.455 E26.79807
G1 X100.442 Y83.783 E27.13929
G1 X100.392 Y84.054 E27.15213
G1 X100.266 Y84.351 E27.16715
G1 X100.041 Y84.648 E27.1845
G1 X99.706 Y84.897 E27.20394
G1 X99.231 Y85.061 E27.22733
G1 X96.115 Y85.061 E27.37243
G1 X95.713 Y85.003 E27.39134
G1 X95.322 Y84.816 E27.41152
G1 X95.101 Y84.628 E27.42503
G1 X94.841 Y84.267 E27.44575
G1 X94.038 Y81.856 E27.56408
G1 X93.654 Y81.856 E27.58196
G1 X93.647 Y84.633 E27.71127
G1 X93.597 Y85.005 E27.72875
G1 X93.491 Y85.275 E27.74225
G1 X93.326 Y85.523 E27.75612
G1 X92.967 Y85.832 E27.77818
G1 F1231.7 X92.498 Y86.132 E27.80975
G1 F1039.6 X91.909 Y86.126 E27.84932
M204 S3000
M205 X10 Y10
G0 F3000 X88.219 Y87.627
G0 X88.357 Y87.975
M204 S1800
M205 X8 Y8
G1 F1500 X88.536 Y87.788 E27.86138
G1 X88.683 Y87.697 E27.86943
G1 X88.963 Y87.618 E27.88298
G1 X94.178 Y87.615 E28.12581
G1 X94.468 Y87.727 E28.14028
G1 X94.659 Y87.878 E28.15162
G1 X94.8 Y88.082 E28.16317
G1 X94.887 Y88.332 E28.17549
G1 X94.887 Y90.227 E28.26373
G1 X94.854 Y90.463 E28.27483
G1 X94.719 Y90.732 E28.28884
G1 X94.443 Y90.969 E28.30578
G1 X94.192 Y91.055 E28.31814
G1 X94.047 Y91.067 E28.32491
G1 X89.047 Y91.067 E28.55773
G1 F1242.6 X88.772 Y91.144 E28.57379
G1 F1060.6 X88.478 Y90.997 E28.59543
G1 F1242.6 X88.296 Y90.604 E28.61978
G1 F1500 X88.207 Y90.227 E28.63781
G1 X88.207 Y88.346 E28.7254
G1 X88.357 Y87.975 E28.74404
M204 S3000
M205 X10 Y10
G0 F3000 X88.147 Y87.975
G0 X87.367 Y84.11
G0 X87.541 Y84.051
M204 S1800
M205 X8 Y8
G1 F1500 X87.325 Y83.808 E28.75917
G1 X86.449 Y81.295 E28.8831
G1 X84.881 Y81.295 E28.95611
G1 X84.882 Y83.455 E29.05669
G1 X84.842 Y83.71 E29.06871
G1 X84.762 Y83.888 E29.07779
G1 X84.591 Y84.091 E29.09015
G1 X84.431 Y84.2 E29.09917
G1 X84.158 Y84.295 E29.11263
G1 X80.091 Y84.295 E29.302
G1 X80.093 Y87.807 E29.46554
G1 X87.424 Y91.475 E29.84724
G1 F1242.6 X88.067 Y91.668 E29.88498
G1 F1060.6 X88.483 Y91.876 E29.91561
G1 F1242.6 X88.79 Y92.156 E29.93896
G1 F1500 X89.292 Y92.408 E29.96512
G1 X118 Y92.408 E31.30188
G1 X118 Y74.5 E32.13576
G1 X85.092 Y74.507 E33.66809
G1 X85.09 Y77.159 E33.79158
G1 X85.204 Y77.615 E33.81347
G1 X86.293 Y77.614 E33.86417
G1 X86.746 Y76.199 E33.93336
G1 X86.845 Y75.991 E33.94408
G1 X87.126 Y75.727 E33.96204
G1 X87.432 Y75.615 E33.97721
G1 X88.048 Y75.615 E34.00589
G1 X88.539 Y75.772 E34.0299
G1 X88.833 Y76.131 E34.0515
G1 X89.204 Y77.615 E34.12273
G1 X90.707 Y77.615 E34.19272
G1 X90.707 Y76.647 E34.23779
G1 X90.759 Y76.355 E34.2516
G1 X90.823 Y76.219 E34.2586
G1 X91.031 Y75.983 E34.27325
G1 F1502.7 X91.354 Y75.829 E34.28988
G1 X91.764 Y75.826 E34.30894
G1 F1500 X92.097 Y75.993 E34.32629
G1 X92.303 Y76.241 E34.3413
G1 X93.048 Y77.615 E34.41408
G1 X94.022 Y77.615 E34.45943
G1 X94.768 Y76.086 E34.53865
G1 X95.046 Y75.763 E34.55849
G1 X95.406 Y75.615 E34.57662
G1 X99.047 Y75.615 E34.74616
G1 X99.551 Y75.782 E34.77088
G1 X99.823 Y76.131 E34.79148
G1 X99.887 Y76.455 E34.80686
G1 X99.884 Y83.735 E35.14585
G1 X99.779 Y84.075 E35.16242
G1 X99.644 Y84.253 E35.17282
G1 X99.443 Y84.403 E35.1845
G1 X99.143 Y84.501 E35.1992
G1 X96.115 Y84.501 E35.34019
G1 X95.874 Y84.466 E35.35153
G1 X95.639 Y84.354 E35.36365
G1 X95.506 Y84.241 E35.37178
G1 X95.35 Y84.026 E35.38415
G1 X94.442 Y81.296 E35.51812
G1 X93.094 Y81.296 E35.58088
G1 X93.087 Y84.632 E35.73622
G1 X93.057 Y84.855 E35.7467
G1 X92.895 Y85.166 E35.76303
G1 X92.679 Y85.351 E35.77627
G1 X92.392 Y85.458 E35.79053
G1 X92.052 Y85.455 E35.80637
G1 X91.773 Y85.34 E35.82042
G1 X91.57 Y85.156 E35.83318
G1 X91.451 Y84.951 E35.84421
G1 X90.226 Y81.295 E36.02375
G1 X88.931 Y81.295 E36.08405
G1 X88.932 Y83.397 E36.18193
G1 X88.832 Y83.797 E36.20113
G1 X88.611 Y84.057 E36.21702
G1 X88.398 Y84.18 E36.22847
G1 X88.16 Y84.236 E36.23986
G1 X87.846 Y84.21 E36.25453
G1 X87.541 Y84.051 E36.27055
M204 S3000
M205 X10 Y10
G0 F3000 X87.367 Y84.11
G0 X84.941 Y83.6
G0 X84.282 Y83.6
M204 S1800
M205 X8 Y8
;TYPE:WALL-OUTER
G1 F1500 X84.094 Y83.731 E36.28122
G1 X79.53 Y83.735 E36.49373
G1 X79.533 Y88.152 E36.69941
G1 X89.16 Y92.968 E37.20065
G1 X118.531 Y92.967 E38.56828
G1 X118.56 Y92.941 E38.5701
G1 X118.56 Y74.011 E39.45156
G1 X118.525 Y73.941 E39.4552
G1 X84.533 Y73.947 E41.03801
G1 X84.53 Y77.228 E41.19079
G1 X84.767 Y78.175 E41.23624
G1 X86.702 Y78.174 E41.32635
G1 X87.297 Y76.315 E41.41723
G1 X87.498 Y76.178 E41.42856
G1 X88.048 Y76.175 E41.45417
G1 X88.212 Y76.227 E41.46218
G1 X88.304 Y76.339 E41.46893
G1 X88.767 Y78.175 E41.5571
G1 X91.267 Y78.175 E41.67351
G1 X91.267 Y76.647 E41.74466
G1 X91.305 Y76.504 E41.75155
G1 F1502.7 X91.483 Y76.375 E41.76177
G1 X91.631 Y76.37 E41.76865
G1 F1500 X91.775 Y76.443 E41.77617
G1 X92.715 Y78.175 E41.86793
G1 X94.372 Y78.175 E41.94509
G1 X95.272 Y76.332 E42.04059
G1 X95.364 Y76.224 E42.0472
G1 X95.475 Y76.178 E42.05279
G1 X99.047 Y76.175 E42.21912
G1 X99.215 Y76.23 E42.22735
