;FLAVOR:Marlin
;TIME:2089
;Filament used: 1.65075m
;Layer height: 0.2
;MINX:73.638
;MINY:72.554
;MINZ:0.2
;MAXX:128.976
;MAXY:145.354
;MAXZ:3
;Generated with Cura_SteamEngine main
M140 S60
M105
M190 S60
M104 S200
M105
M109 S200
M82 ;absolute extrusion mode
G21 ;metric values
G90 ;absolute positioning
M82 ;set extruder to absolute mode
M107 ;start with the fan off
G28 X0 Y0 ;move X/Y to min endstops
G28 Z0 ;move Z to min endstops
G1 Z15.0 F100 ;move the platform down 15mm
G92 E0 ;zero the extruded length
G1 F200 E3 ;extrude 3mm of feed stock
G92 E0 ;zero the extruded length again
G1 F100
G0 Y20 F100
M117 Printing...
G5
G92 E0
G92 E0
G1 F2400 E-6
;LAYER_COUNT:15
;LAYER:0
M107
M204 S3000
M205 X10 Y10
G1 F600 Z0.275
G0 F3000 X85.239 Y74.649 Z0.275
G1 F600 Z0.2
G0 F3000 X83.557 Y78.468
M204 S1800
M205 X8 Y8
;TYPE:SKIRT
G1 F2400 E0
G1 X83.675 Y77.816 E0.03085
G1 X83.842 Y77.121 E0.06414
G1 X84.085 Y76.448 E0.09745
G1 X84.402 Y75.807 E0.13075
G1 X84.788 Y75.205 E0.16405
G1 X85.239 Y74.649 E0.19739
G1 X85.749 Y74.148 E0.23068
G1 X86.312 Y73.707 E0.26398
G1 X86.92 Y73.331 E0.29726
G1 X87.567 Y73.025 E0.33059
G1 X88.244 Y72.794 E0.3639
G1 X88.942 Y72.64 E0.39718
G1 X89.972 Y72.556 E0.4453
G1 X111.884 Y72.554 E1.46562
G1 X112.682 Y72.565 E1.50278
G1 X113.395 Y72.615 E1.53606
G1 X114.099 Y72.744 E1.56939
G1 X114.783 Y72.951 E1.60267
G1 X115.44 Y73.233 E1.63596
G1 X116.062 Y73.587 E1.66928
G1 X116.64 Y74.008 E1.70258
G1 X117.168 Y74.491 E1.7359
G1 X117.639 Y75.029 E1.7692
G1 X118.046 Y75.617 E1.80249
G1 X118.386 Y76.247 E1.83583
G1 X118.653 Y76.911 E1.86915
G1 X118.904 Y77.911 E1.91716
G1 X128.797 Y137.247 E4.71823
G1 X128.907 Y137.963 E4.75197
G1 X128.976 Y138.675 E4.78527
G1 X128.965 Y139.39 E4.81857
G1 X128.874 Y140.1 E4.8519
G1 X128.705 Y140.795 E4.88521
G1 X128.459 Y141.466 E4.91849
G1 X128.14 Y142.107 E4.95183
G1 X127.751 Y142.707 E4.98512
G1 X127.298 Y143.26 E5.01841
G1 X126.786 Y143.76 E5.05173
G1 X126.221 Y144.199 E5.08505
G1 X125.611 Y144.572 E5.11834
G1 X124.963 Y144.875 E5.15165
G1 X124.286 Y145.104 E5.18493
G1 X123.587 Y145.255 E5.21823
G1 X122.706 Y145.334 E5.25942
G1 X121.734 Y145.353 E5.30469
G1 X113.208 Y145.353 E5.70169
G1 X112.284 Y145.34 E5.74472
G1 X109.21 Y145.079 E5.88838
G1 X106.593 Y144.933 E6.01042
G1 X102.593 Y144.849 E6.19672
G1 X99.994 Y144.886 E6.31775
G1 X97.371 Y144.997 E6.44
G1 X94.438 Y145.208 E6.57693
G1 X92.942 Y145.337 E6.64685
G1 X92.271 Y145.354 E6.6781
G1 X83.208 Y145.353 E7.10011
G1 X82.51 Y145.343 E7.13262
G1 X81.861 Y145.301 E7.1629
G1 X81.18 Y145.22 E7.19483
G1 X79.719 Y145.018 E7.26351
G1 X79.058 Y144.916 E7.29465
G1 X78.358 Y144.768 E7.32797
G1 X77.679 Y144.542 E7.36129
G1 X77.03 Y144.242 E7.39458
G1 X76.418 Y143.872 E7.42788
G1 X75.852 Y143.435 E7.46118
G1 X75.337 Y142.938 E7.49451
G1 X74.881 Y142.387 E7.52781
G1 X74.49 Y141.789 E7.56108
G1 X74.168 Y141.15 E7.5944
G1 X73.919 Y140.479 E7.62773
G1 X73.746 Y139.785 E7.66103
G1 X73.652 Y139.076 E7.69433
G1 X73.638 Y138.361 E7.72763
G1 X73.707 Y137.575 E7.76437
G1 X83.557 Y78.468 E10.5546
M204 S3000
M205 X10 Y10
G0 F3000 X84.108 Y78.568
M204 S1800
M205 X8 Y8
G1 F2400 X84.226 Y77.916 E10.58545
G1 X84.387 Y77.252 E10.61727
G1 X84.624 Y76.611 E10.64909
G1 X84.935 Y76.003 E10.68089
G1 X85.314 Y75.434 E10.71272
G1 X85.757 Y74.914 E10.74453
G1 X86.258 Y74.45 E10.77633
G1 X86.81 Y74.047 E10.80815
G1 X87.405 Y73.711 E10.83997
G1 X88.035 Y73.447 E10.87178
G1 X88.692 Y73.258 E10.90361
G1 X89.366 Y73.148 E10.93541
G1 X89.972 Y73.116 E10.96367
G1 X111.884 Y73.114 E11.98398
G1 X112.674 Y73.125 E12.02077
G1 X113.355 Y73.174 E12.05256
G1 X114.026 Y73.303 E12.08438
G1 X114.677 Y73.509 E12.11618
G1 X115.3 Y73.79 E12.148
G1 X115.886 Y74.142 E12.17983
G1 X116.426 Y74.56 E12.21163
G1 X116.915 Y75.038 E12.24347
G1 X117.343 Y75.57 E12.27526
G1 X117.707 Y76.148 E12.30707
G1 X118.001 Y76.765 E12.33889
G1 X118.221 Y77.412 E12.37072
G1 X118.351 Y78.004 E12.39894
G1 X128.243 Y137.332 E15.19963
G1 X128.353 Y138.048 E15.23337
G1 X128.417 Y138.728 E15.26517
G1 X128.402 Y139.411 E15.29698
G1 X128.306 Y140.088 E15.32882
G1 X128.132 Y140.749 E15.36065
G1 X127.882 Y141.385 E15.39247
G1 X127.56 Y141.987 E15.42426
G1 X127.17 Y142.548 E15.45607
G1 X126.716 Y143.059 E15.4879
G1 X126.206 Y143.514 E15.51973
G1 X125.647 Y143.906 E15.55152
G1 X125.045 Y144.23 E15.58335
G1 X124.41 Y144.481 E15.61515
G1 X123.75 Y144.657 E15.64695
G1 X122.971 Y144.769 E15.6836
G1 X121.723 Y144.793 E15.74172
G1 X113.216 Y144.793 E16.13784
G1 X112.311 Y144.78 E16.17999
G1 X109.251 Y144.521 E16.32298
G1 X106.609 Y144.373 E16.4462
G1 X102.596 Y144.289 E16.6331
G1 X99.997 Y144.325 E16.75413
G1 X97.305 Y144.44 E16.8796
G1 X94.423 Y144.647 E17.01414
G1 X92.916 Y144.777 E17.08458
G1 X92.271 Y144.794 E17.11462
G1 X83.216 Y144.793 E17.53626
G1 X82.518 Y144.783 E17.56876
G1 X81.926 Y144.745 E17.59639
G1 X81.377 Y144.681 E17.62212
G1 X79.804 Y144.465 E17.69606
G1 X79.143 Y144.363 E17.7272
G1 X78.475 Y144.219 E17.75902
G1 X77.829 Y143.999 E17.7908
G1 X77.212 Y143.704 E17.82264
G1 X76.634 Y143.34 E17.85445
G1 X76.103 Y142.91 E17.88626
G1 X75.626 Y142.421 E17.91807
G1 X75.208 Y141.88 E17.94991
G1 X74.857 Y141.294 E17.98171
G1 X74.577 Y140.671 E18.01352
G1 X74.371 Y140.02 E18.04531
G1 X74.243 Y139.348 E18.07717
G1 X74.194 Y138.667 E18.10896
G1 X74.254 Y137.693 E18.1544
G1 X84.108 Y78.568 E20.94548
M204 S3000
M205 X10 Y10
G0 F3000 X84.659 Y78.668
M204 S1800
M205 X8 Y8
G1 F2400 X84.777 Y78.016 E20.97633
G1 X84.932 Y77.385 E21.00659
G1 X85.163 Y76.778 E21.03683
G1 X85.467 Y76.204 E21.06708
G1 X85.839 Y75.671 E21.09734
G1 X86.274 Y75.188 E21.12761
G1 X86.765 Y74.763 E21.15785
G1 X87.304 Y74.4 E21.18811
G1 X87.884 Y74.107 E21.21836
G1 X88.495 Y73.887 E21.2486
G1 X89.128 Y73.744 E21.27882
G1 X89.973 Y73.676 E21.3183
G1 X111.885 Y73.674 E22.33861
G1 X112.666 Y73.685 E22.37498
G1 X113.314 Y73.734 E22.40524
G1 X113.95 Y73.862 E22.43545
G1 X114.567 Y74.068 E22.46574
G1 X115.153 Y74.347 E22.49596
G1 X115.7 Y74.697 E22.5262
G1 X116.201 Y75.111 E22.55646
G1 X116.647 Y75.583 E22.5867
G1 X117.031 Y76.107 E22.61695
G1 X117.348 Y76.674 E22.6472
G1 X117.594 Y77.275 E22.67744
G1 X117.799 Y78.096 E22.71684
G1 X127.69 Y137.417 E25.51721
G1 X127.8 Y138.133 E25.55094
G1 X127.859 Y138.78 E25.58119
G1 X127.838 Y139.429 E25.61142
G1 X127.737 Y140.071 E25.64169
G1 X127.559 Y140.696 E25.67195
G1 X127.305 Y141.294 E25.7022
G1 X126.979 Y141.856 E25.73245
G1 X126.587 Y142.374 E25.7627
G1 X126.135 Y142.84 E25.79293
G1 X125.628 Y143.247 E25.8232
G1 X125.076 Y143.588 E25.85342
G1 X124.485 Y143.86 E25.88371
G1 X123.866 Y144.056 E25.91394
G1 X123.228 Y144.175 E25.94417
G1 X122.684 Y144.214 E25.96956
G1 X121.609 Y144.234 E26.01963
G1 X113.224 Y144.233 E26.41007
G1 X112.338 Y144.22 E26.45133
G1 X109.295 Y143.963 E26.59353
G1 X106.623 Y143.813 E26.71814
G1 X102.6 Y143.729 E26.90551
G1 X99.965 Y143.766 E27.02822
G1 X97.276 Y143.88 E27.15354
G1 X94.398 Y144.087 E27.2879
G1 X93.044 Y144.204 E27.35118
G1 X92.271 Y144.234 E27.3872
G1 X83.224 Y144.233 E27.80847
G1 X82.526 Y144.223 E27.84098
G1 X81.991 Y144.188 E27.86594
G1 X81.333 Y144.111 E27.89679
G1 X79.975 Y143.924 E27.96062
G1 X79.229 Y143.809 E27.99577
G1 X78.594 Y143.671 E28.02603
G1 X77.981 Y143.456 E28.05627
G1 X77.399 Y143.167 E28.08653
G1 X76.857 Y142.809 E28.11678
G1 X76.363 Y142.386 E28.14706
G1 X75.925 Y141.907 E28.17729
G1 X75.549 Y141.377 E28.20754
G1 X75.241 Y140.806 E28.23775
G1 X75.005 Y140.2 E28.26804
G1 X74.846 Y139.57 E28.29829
G1 X74.765 Y138.926 E28.32851
G1 X74.763 Y138.276 E28.35878
G1 X74.865 Y137.439 E28.39804
G1 X84.659 Y78.668 E31.17241
M204 S3000
M205 X10 Y10
G1 F2400 E25.17241
;MESH:tweezers2.3mf
G0 F3000 X89.211 Y79.429
G0 X90.28 Y79.606
G0 X103.785 Y88.25
M204 S1800
M205 X8 Y8
;TYPE:WALL-INNER
G1 F2400 E31.17241
G1 F1500 X103.946 Y88.579 E31.18946
G1 X113.741 Y137.554 E33.51511
G1 X116.691 Y137.554 E33.65247
G1 X120.94 Y137.554 E33.85032
G1 X111.406 Y80.354 E36.55054
G1 X91.152 Y80.355 E37.49365
G1 X81.643 Y137.41 E40.18701
G1 X82.689 Y137.554 E40.23618
G1 X91.445 Y137.553 E40.6439
G1 X101.211 Y88.726 E42.96252
G1 X101.302 Y88.436 E42.97667
G1 X101.478 Y88.141 E42.99266
G1 X101.758 Y87.87 E43.01081
G1 X101.937 Y87.758 E43.02064
G1 X102.357 Y87.619 E43.04124
G1 X102.823 Y87.618 E43.06294
G1 X103.232 Y87.75 E43.08295
G1 X103.561 Y87.98 E43.10164
G1 X103.785 Y88.25 E43.11798
M204 S3000
M205 X10 Y10
G0 F3000 X103.178 Y88.388
M204 S1800
M205 X8 Y8
G1 F1500 X103.411 Y88.763 E43.13854
G1 X113.282 Y138.114 E45.48204
G1 X116.691 Y138.114 E45.64078
G1 X121.601 Y138.114 E45.86941
G1 X111.881 Y79.794 E48.62249
G1 X90.677 Y79.795 E49.60984
G1 X80.995 Y137.887 E52.35216
G1 X82.651 Y138.114 E52.42999
G1 X91.904 Y138.113 E52.86085
G1 X101.777 Y88.751 E55.20488
G1 X101.996 Y88.4 E55.22414
G1 X102.196 Y88.255 E55.23564
G1 X102.447 Y88.171 E55.24797
G1 X102.748 Y88.173 E55.26198
G1 X102.98 Y88.25 E55.27337
G1 X103.178 Y88.388 E55.2846
M204 S3000
M205 X10 Y10
G0 F3000 X102.388 Y88.8
M204 S1800
M205 X8 Y8
;TYPE:WALL-OUTER
G1 F1500 X102.538 Y88.724 E55.29243
G1 X102.689 Y88.734 E55.29948
G1 X102.794 Y88.796 E55.30516
G1 X102.868 Y88.912 E55.31157
G1 X112.823 Y138.674 E57.6746
G1 X116.691 Y138.674 E57.85471
G1 X122.262 Y138.674 E58.11412
G1 X112.355 Y79.234 E60.92008
G1 X90.203 Y79.235 E61.95157
G1 X80.348 Y138.363 E64.7428
G1 X82.613 Y138.674 E64.84925
G1 X92.363 Y138.673 E65.30326
G1 X102.319 Y88.907 E67.66649
G1 X102.388 Y88.8 E67.67241
M204 S3000
M205 X10 Y10
G0 F3000 X102.538 Y88.724
G0 X102.57 Y88.726
G0 X102.57 Y88.054
G0 X101.927 Y87.176
M204 S1800
M205 X8 Y8
;TYPE:SKIN
G1 F1500 X102.264 Y87.086 E67.68866
G1 X102.903 Y87.081 E67.71841
G1 X103.466 Y87.26 E67.74592
G1 X103.75 Y87.438 E67.76153
G1 X104.108 Y87.776 E67.78445
G1 X104.338 Y88.134 E67.80427
G1 X104.462 Y88.427 E67.81908
G1 X114.185 Y137.014 E70.12635
G1 X116.692 Y137.014 E70.24309
G1 X120.302 Y137.014 E70.41119
G1 X110.948 Y80.894 E73.06042
G1 X91.61 Y80.896 E73.96088
G1 X82.268 Y136.95 E76.60699
G1 X82.728 Y137.014 E76.62861
G1 X91.001 Y137.013 E77.01384
G1 X100.691 Y88.575 E79.314
G1 X100.808 Y88.213 E79.33172
G1 X101.031 Y87.836 E79.35211
G1 X101.437 Y87.431 E79.37882
G1 X101.927 Y87.176 E79.40454
M204 S3000
M205 X10 Y10
G0 F3000 X110.477 Y81.175
M204 S1800
M205 X8 Y8
G1 F1500 X110.757 Y81.455 E79.42298
M204 S3000
M205 X10 Y10
G0 F3000 X110.916 Y82.405
M204 S1800
M205 X8 Y8
G1 F1500 X109.685 Y81.175 E79.50401
M204 S3000
M205 X10 Y10
G0 F3000 X108.893 Y81.175
M204 S1800
M205 X8 Y8
G1 F1500 X111.074 Y83.355 E79.6476
M204 S3000
M205 X10 Y10
G0 F3000 X111.232 Y84.306
M204 S1800
M205 X8 Y8
G1 F1500 X108.101 Y81.175 E79.85378
M204 S3000
M205 X10 Y10
G0 F3000 X107.309 Y81.175
M204 S1800
M205 X8 Y8
G1 F1500 X111.391 Y85.256 E80.12255
M204 S3000
M205 X10 Y10
G0 F3000 X111.549 Y86.206
M204 S1800
M205 X8 Y8
G1 F1500 X106.517 Y81.175 E80.45389
M204 S3000
M205 X10 Y10
G0 F3000 X105.725 Y81.175
M204 S1800
M205 X8 Y8
G1 F1500 X111.708 Y87.157 E80.84784
M204 S3000
M205 X10 Y10
G0 F3000 X111.866 Y88.107
M204 S1800
M205 X8 Y8
G1 F1500 X104.933 Y81.175 E81.30436
M204 S3000
M205 X10 Y10
G0 F3000 X104.141 Y81.175
M204 S1800
M205 X8 Y8
G1 F1500 X112.024 Y89.057 E81.82344
M204 S3000
M205 X10 Y10
G0 F3000 X112.183 Y90.008
M204 S1800
M205 X8 Y8
G1 F1500 X103.35 Y81.175 E82.4051
M204 S3000
M205 X10 Y10
G0 F3000 X102.558 Y81.175
M204 S1800
M205 X8 Y8
G1 F1500 X112.341 Y90.958 E83.04933
M204 S3000
M205 X10 Y10
G0 F3000 X112.499 Y91.909
M204 S1800
M205 X8 Y8
G1 F1500 X101.766 Y81.175 E83.75615
M204 S3000
M205 X10 Y10
G0 F3000 X100.974 Y81.175
M204 S1800
M205 X8 Y8
G1 F1500 X112.658 Y92.859 E84.52556
M204 S3000
M205 X10 Y10
G0 F3000 X112.816 Y93.809
M204 S1800
M205 X8 Y8
G1 F1500 X100.182 Y81.175 E85.35753
M204 S3000
M205 X10 Y10
G0 F3000 X99.39 Y81.175
M204 S1800
M205 X8 Y8
G1 F1500 X112.975 Y94.76 E86.25213
M204 S3000
M205 X10 Y10
G0 F3000 X113.133 Y95.71
M204 S1800
M205 X8 Y8
G1 F1500 X98.598 Y81.175 E87.20928
M204 S3000
M205 X10 Y10
G0 F3000 X97.807 Y81.175
M204 S1800
M205 X8 Y8
G1 F1500 X103.725 Y87.094 E87.59903
M204 S3000
M205 X10 Y10
G0 F3000 X104.496 Y87.865
M204 S1800
M205 X8 Y8
G1 F1500 X113.291 Y96.66 E88.17819
M204 S3000
M205 X10 Y10
G0 F3000 X113.45 Y97.611
M204 S1800
M205 X8 Y8
G1 F1500 X104.873 Y89.034 E88.743
M204 S3000
M205 X10 Y10
G0 F3000 X105.071 Y90.024
M204 S1800
M205 X8 Y8
G1 F1500 X113.609 Y98.562 E89.30524
M204 S3000
M205 X10 Y10
G0 F3000 X113.767 Y99.512
M204 S1800
M205 X8 Y8
G1 F1500 X105.269 Y91.014 E89.86485
M204 S3000
M205 X10 Y10
G0 F3000 X105.467 Y92.004
M204 S1800
M205 X8 Y8
G1 F1500 X113.926 Y100.462 E90.42186
M204 S3000
M205 X10 Y10
G0 F3000 X114.084 Y101.413
M204 S1800
M205 X8 Y8
G1 F1500 X105.665 Y92.994 E90.97626
M204 S3000
M205 X10 Y10
G0 F3000 X105.863 Y93.984
M204 S1800
M205 X8 Y8
G1 F1500 X114.242 Y102.363 E91.52804
M204 S3000
M205 X10 Y10
G0 F3000 X114.401 Y103.313
M204 S1800
M205 X8 Y8
G1 F1500 X106.061 Y94.974 E92.07721
M204 S3000
M205 X10 Y10
G0 F3000 X106.259 Y95.964
M204 S1800
M205 X8 Y8
G1 F1500 X114.559 Y104.264 E92.62377
M204 S3000
M205 X10 Y10
G0 F3000 X114.718 Y105.214
M204 S1800
M205 X8 Y8
G1 F1500 X106.457 Y96.954 E93.16774
M204 S3000
M205 X10 Y10
G0 F3000 X106.655 Y97.944
M204 S1800
M205 X8 Y8
G1 F1500 X114.876 Y106.165 E93.70911
M204 S3000
M205 X10 Y10
G0 F3000 X115.034 Y107.115
M204 S1800
M205 X8 Y8
G1 F1500 X106.853 Y98.934 E94.24784
M204 S3000
M205 X10 Y10
G0 F3000 X107.051 Y99.924
M204 S1800
M205 X8 Y8
G1 F1500 X115.193 Y108.065 E94.78397
M204 S3000
M205 X10 Y10
G0 F3000 X115.351 Y109.016
M204 S1800
M205 X8 Y8
G1 F1500 X107.249 Y100.914 E95.3175
M204 S3000
M205 X10 Y10
G0 F3000 X107.447 Y101.903
M204 S1800
M205 X8 Y8
G1 F1500 X115.51 Y109.966 E95.84847
M204 S3000
M205 X10 Y10
G0 F3000 X115.668 Y110.916
M204 S1800
M205 X8 Y8
G1 F1500 X107.646 Y102.894 E96.37673
M204 S3000
M205 X10 Y10
G0 F3000 X107.844 Y103.884
M204 S1800
M205 X8 Y8
G1 F1500 X115.826 Y111.867 E96.90239
M204 S3000
M205 X10 Y10
G0 F3000 X115.985 Y112.817
M204 S1800
M205 X8 Y8
G1 F1500 X108.042 Y104.874 E97.42545
M204 S3000
M205 X10 Y10
G0 F3000 X108.24 Y105.864
M204 S1800
M205 X8 Y8
G1 F1500 X116.143 Y113.767 E97.94588
M204 S3000
M205 X10 Y10
G0 F3000 X116.302 Y114.718
M204 S1800
M205 X8 Y8
G1 F1500 X108.438 Y106.854 E98.46373
M204 S3000
M205 X10 Y10
G0 F3000 X108.636 Y107.844
M204 S1800
M205 X8 Y8
G1 F1500 X116.46 Y115.668 E98.97896
M204 S3000
M205 X10 Y10
G0 F3000 X116.619 Y116.619
M204 S1800
M205 X8 Y8
G1 F1500 X108.834 Y108.834 E99.49161
M204 S3000
M205 X10 Y10
G0 F3000 X109.032 Y109.824
M204 S1800
M205 X8 Y8
G1 F1500 X116.777 Y117.569 E100.00164
M204 S3000
M205 X10 Y10
G0 F3000 X116.936 Y118.52
M204 S1800
M205 X8 Y8
G1 F1500 X109.23 Y110.814 E100.50909
M204 S3000
M205 X10 Y10
G0 F3000 X109.428 Y111.804
M204 S1800
M205 X8 Y8
G1 F1500 X117.094 Y119.47 E101.01391
M204 S3000
M205 X10 Y10
G0 F3000 X117.253 Y120.42
M204 S1800
M205 X8 Y8
G1 F1500 X109.626 Y112.794 E101.51613
M204 S3000
M205 X10 Y10
G0 F3000 X109.824 Y113.784
M204 S1800
M205 X8 Y8
G1 F1500 X117.411 Y121.371 E102.01574
M204 S3000
M205 X10 Y10
G0 F3000 X117.569 Y122.321
M204 S1800
M205 X8 Y8
G1 F1500 X110.022 Y114.774 E102.51273
M204 S3000
M205 X10 Y10
G0 F3000 X110.22 Y115.763
M204 S1800
M205 X8 Y8
G1 F1500 X117.728 Y123.272 E103.00717
M204 S3000
M205 X10 Y10
G0 F3000 X117.886 Y124.222
M204 S1800
M205 X8 Y8
G1 F1500 X110.418 Y116.754 E103.49895
M204 S3000
M205 X10 Y10
G0 F3000 X110.616 Y117.744
M204 S1800
M205 X8 Y8
G1 F1500 X118.045 Y125.172 E103.98813
M204 S3000
M205 X10 Y10
G0 F3000 X118.203 Y126.123
M204 S1800
M205 X8 Y8
G1 F1500 X110.814 Y118.734 E104.47471
M204 S3000
M205 X10 Y10
G0 F3000 X111.012 Y119.724
M204 S1800
M205 X8 Y8
G1 F1500 X118.361 Y127.073 E104.95866
M204 S3000
M205 X10 Y10
G0 F3000 X118.52 Y128.023
M204 S1800
M205 X8 Y8
G1 F1500 X111.21 Y120.714 E105.44
M204 S3000
M205 X10 Y10
G0 F3000 X111.408 Y121.704
M204 S1800
M205 X8 Y8
G1 F1500 X118.678 Y128.974 E105.91874
M204 S3000
M205 X10 Y10
G0 F3000 X118.837 Y129.924
M204 S1800
M205 X8 Y8
G1 F1500 X111.606 Y122.694 E106.39488
M204 S3000
M205 X10 Y10
G0 F3000 X111.804 Y123.684
M204 S1800
M205 X8 Y8
G1 F1500 X118.995 Y130.874 E106.86839
M204 S3000
M205 X10 Y10
